**kern
*staff1
*solo1[solo1]
*solo2[solo2]
*solo3[solo3]
*solo4[solo4]
*solo5[solo5]
*solo6[solo6]
*solo7[solo7]
*solo8[solo8]
*head1[head1]
=1-
*clefG2
*k[]
*B-:
*M4/4
1r
=2
1r
=3
1r
=4
1r
=5
2r
*>head1
{4b-\
8g/L
8g-/J
=6||
8f/L
8e-/
8d/
8c/J
8A/L
8B-/
8c/
8A/J
=7
8B-/L
8c/
8d/
8e-/J
8f/L
[8c/J
4c/]}
=8
1r
=9
2r
{4b-\
8g/L
8g-/J
=10
8f/L
8e-/
8d-/
8c/J
8A/L
8B-/
8c/
8B-/J
=11
8A/L
8B-/
8c/
8B-/J
8A/L
8B-/
8c/
[8f/J
=12
2f/]}
2r
=13
2r
{4b-\
8g/L
8g-/J
=14
8f/L
8e-/
8d/
8c/J
8A/L
8B-/
8c/
8B-/J
=15
8A/L
8B-/
8d/
8f/J
8r
8f/
[4c/
=16
2c/]}
2r
=17
*>solo1
{8a\L
8b-\
8cc\
8b-\J
8a/L
8b-/J}
4r
=18||
2r
{12a-/L
12b-/
12a-/J
8g/L
8g-/J
=19
8f/L
8e-/
8d/
8c/J
8B-/L
8A/J
12A-/L
12c/
12e-/J
=20
8b-/L
8g-/
8d/
8B-/J
8c/L
8A-/
8F/
8B-/J
=21
8G/L
8B-/
8c/
8d/J
8f/L
8e-/
8B-/
8G/J
=22
8c/L
8d-/
8B-/
8G/J
8c/L
8A/J
12B-/L
12dn/
12f/J
=23
12a\L
12b-\
12bn\J
8cc/L
8a/J
8ff\L
8cc\J}
4r
=24
2r
2r
=25
{8ee-\L
8dd\
8cc\
8ee-\J
8dd\L
8cc\
8b\
8g\J
=26
8b-/L
8a-/
8an/
8f#/J
8e-/L
8en/
8fn/
8A/J
=27
8B-/L
8e-/
8c/
8c#/J
2d/}
=28
1r
=29
8r
*>solo2
{8c#/
12d/L
12f/
12a/J
8cc/L
8a/J
16b-\LL
16cc\
16dd\
16ee-\JJ
=30||
8ff\L
8ff\
8ee\
8ee\J
8ee-\L
8ee-\
8dd\J
8r
=31
8cc\L
8dd\
8ee-\
8cc\J
8cc#\L
8dd\
8b-\
8bn\J
=32
8cc\L
8b\
8b-\
8a\J
8a-/L
8c/
8b-/
8a-/J
=33
8g/L
8f/
8e-/
8B-/J
2f/}
=34
1r
=35
8r
{8c#/
12d/L
12f/
12a/J
[4cc\
8cc/L]
8cn/J
=36
12d-/L
12e/
12a-/J
[4b\
8b/L]
8B/J
12c/L
12e-/
12g/J
=37
4b-\
4r
8r
8B/
12c/L
12e-/
12g/J
=38
8b-/L
8g/
8e-/
8c/J
8b-/L
8g-/
8e-/
8B/J
=39
4b-\
4r
8r
8A/
12B-/L
12d/
12f/J
=40
8b-/L
[8f/J
4f/]}
2r
=41
8r
*>solo3
{8A/
12B-/L
12d/
12f/J
8b-/L
8a-/
8g/
8f/J
=42||
8e-/L
8A/
8B-/
8c/J
8d-/L
8B-/
8G/
8A/J
=43
8c/L
8B-/
8A/
8c/J
8g/L
8g-/
8e/
8B-/J
=44
8B/L
8d-/
8A-/
8G-/J
8Gn/L
8B-/
8c/
8dn/J
=45
8f/L
8e/
8e-/
8A/J
8B-/L
8d-/
8B-/
8G/J
=46
8c/L
8A/J
12B-/L
12d/
12f/J
12a\L
12b-\
12bn\J
4cc\}
=47
2r
4r
{8a/L
8f/J
=48
8d/L
8c/J
2b\
12a-/L
12e/
12d-/J
=49
16b-/LL
16a/
16g/
16f/JJ
2e-/}
4r
=50
2r
{12g-/L
12a-/
12g-/J
8f/L
8e/J
=51
8e-/L
8B-/J
2.d/}
=52
1r
=53
4r
8r
*>solo4
{[8d/
4d/]
4f/
=54||
8b-/L
8f/
8d/
8B-/J
8e-/L
8f/J
12g-/L
12a-/
12g-/J
=55
8f/L
8e/
8e-/J}
8r
4r
8r
{8c/
=56
8d-/L
8dn/
8B-/
8Bn/J
8c/L
8B/
8B-/
8A-/J
=57
8G/
8r
8r
8d/
8f/L
8e-/J}
4r
=58
1r
=59
4r
{8cc#\L
8dd\J
8gg\L
8gg-\
8ff\
8ee\J
=60
8ee-\L
16dd\L
16cc\J
8b\
8d\J
8f/L
8a-/
8g/
8f/J
=61
8e-/L
8g/
8cc/
8ee-/J
8dd\L
8cc\
8b\
8g\J
=62
8b-/L
8a-/
8an/
8g-/J
8e-/L
8en/
8f/
8c#/J
=63
12d/L
12f/
12a/J
8cc/L
8a/J
8b-\L
16cc\L
16b-\J
8a\
8g\J
=64
8f/L
8e/
8e-/
8G/J
4d/
8f/L
[8c/J
=65
8.c/L]
16B-/Jk
2c/}
4r
=66||
1r
=67
1r
=68
1r
=69
1r
=70
1r
=71
1r
=72
1r
=73
1r
=74
1r
=75
1r
=76
1r
=77
1r
=78
1r
=79
1r
=80
1r
=81
1r
=82
1r
=83
1r
=84
1r
=85
1r
=86
1r
=87
1r
=88
1r
=89
1r
=90
1r
=91
1r
=92
1r
=93
1r
=94
1r
=95
1r
=96
1r
=97
1r
=98
1r
=99
1r
=100
1r
=101
1r
=102||
1r
=103
1r
=104
1r
=105
1r
=106
1r
=107
1r
=108
1r
=109
1r
=110
1r
=111
1r
=112
2r
*>solo5
{8f/L
8g/
8b-/
[8dd-/J
=113
8dd-\L]
8b-\J
[2cc\
8cc\L]
8b-\J
=114||
4r
8r
16cc\LL
16b-\JJ
8a-/L
8f/
8g/
8f/J
=115
2r
4r
12a-/L
12b-/
12a-/J
=116
8g/L
8g-/
8f/
8e-/J
8d/L
8c/
8B-/
8A-/J
=117
8G/L
8B-/
8c/
8d/J
8f/L
[8e-/J
4e-/]}
=118
1r
=119
4r
{12dd\L
12ee-\
12een\J
8ff\L
8a\
8b-\
8ee-\J
=120
8cc\L
8cc#\
8dd\
8ccn\J
8b/L
8a-/
8g/
8f/J
=121
12e-/L
12g/
12b-/J
8dd\L
8cc\J
4r
8r
[8b-\
=122
8b-\L]
16cc\L
16b-\J
8a\
8g\J
8f/L
8e-/
8d/
8c/J
=123
8A/L
8B-/
8c/
[8B-/J
4B-/]}
4r
=124
1r
=125
*>solo6
{4B-/
8d/L
8c/J
4B-/
4f/
=126||
4d/
[2.b-\
=127
4b-\]
12a-/L
12b-/
12a-/J
8g/L
8g-/
8f/
8e-/J
=128
8d/L
8c/
8B-/
8A/J
8A-/L
8c/
8b-/
8a-/J
=129
8g/L
8g-/J
4f/
4r
8r
8e/
=130
8e-/L
8A/
8B-/
8c/J
8d-/L
8B-/
8G/
8A/J
=131
8c/L
8A/J
12B-/L
12d/
12f/J
12a\L
12b-\
12bn\J
8cc/L
8a/J
=132
8ff\L
8cc\J}
4r
4r
8r
{8dd\
=133
4ee-\
4r
4r
8r
8dd\
=134
6ee-\
6ff\
6dd\
4r
8r
[8a/
=135
12a\L]
12b-\
12bn\J
8cc/L
8a/J
8b-/L
8f/J}
4r
=136
8r
{[8a-/L
8a-/]
16b-/L
16a-/JJ
6f/
6e-/
12c/L
12B-/J
=137
4.d/
8f/}
4r
8r
*>solo7
{8d/
=138||
8e-/L
8f/
8g/
8a/J
8b-/L
8f/
8d/
8B-/J
=139
8f#/L
8g/
8e-/
8c/J
8fn/L
8g/
8a-/
8g/J
=140
8f/L
8e-/
8d/
8c/J
8A/L
8A-/J}
4r
=141
4r
8r
{8B-/
8G/L
8B-/
8c/
8B-/J
=142
8f/L
8e-/
8B-/
8G/J
8c/L
8d-/
8B-/
8G/J
=143
8c/L
8A/J
12B-/L
12d/
12f/J
12a\L
12b-\
12bn\J
8cc/L
8a/J
=144
8b-/L
8a/
8g/
8g-/J
8f/L
8e/
8e-/
8B-/J
=145
8d/L
8c/
8d/
[8c/J
4c/]}
4r
=146
2r
8r
{16B/LL
16e-/JJ
12g-\L
12b-\
12dd-\J
=147
4.aa-\
8gg-\
8ff\L
8ee\J
4ee-\
=148
2r
4dd\
8ff\L
8ee-\J
=149
8dd\L
8b-\J}
4r
2r
=150||
1r
=151
1r
=152
1r
=153
1r
=154
1r
=155
1r
=156
1r
=157
1r
=158
1r
=159
1r
=160
1r
=161
*>solo8
{4f/
8cc/L
8a/J
8b/L
8a-/
8e/
8d-/J
=162||
8b-/L
8a/
8g/
8g-/J
8f/L
8e/
8e-/
8B-/J
=163
8G/L
8F#/
8d/
8c/J
8B-/L
8G/J
12A-/L
12c/
12e-/J
=164
8dd/L
8f#/
8e-/
8en/J
8f#/L
8e-/
8d/
8c/J}
=165
2r
4r
8r
{8f#/
=166
12g\L
12b-\
12dd\J
8ff\L
8ee-\J
8dd\L
8cc\
8b-\
8g-\J
=167
8e-/L
8c/
8f/
8e-/J
8d/L
8c/
8A/
8B-/J
=168
8c/L
8B-/
8Bn/
8d/J
8f/L
8a-/
8g/
8f/J
=169
8e/L
8g/
8b-/
8dd/J
8a-/L
8an/
8cc/
8bn/J
=170
8b-/L
8a/
8g/
8g-/J
8f/L
8B-/
8A/
8B-/J
=171
8c/L
8B-/
8A/
8B-/J
8d/L
8B-/
8A/
8B-/J
=172
8e-/L
8B-/
8en/J}
8r
2r
==
*-
